Dependent/resource/extra/lut/tonelut.cube
LUT_3D_SIZE 8
DOMAIN_MIN 0.000000 0.000000 0.000000
DOMAIN_MAX 0.903226 0.903226 0.903226
0.000000 0.000000 0.000000
0.011719 0.000000 0.000000
0.097656 0.000000 0.000000
0.257812 0.000000 0.000000
0.585938 0.000000 0.003906
0.957031 0.113281 0.050781
0.996094 0.386719 0.058594
0.996094 0.761719 0.339844
0.000000 0.007812 0.000000
0.007812 0.007812 0.000000
0.093750 0.007812 0.000000
0.265625 0.000000 0.000000
0.589844 0.000000 0.003906
0.957031 0.148438 0.050781
0.996094 0.398438 0.054688
0.996094 0.765625 0.339844
0.000000 0.093750 0.000000
0.000000 0.097656 0.000000
0.101562 0.097656 0.000000
0.285156 0.101562 0.000000
0.601562 0.093750 0.000000
0.953125 0.230469 0.042969
0.996094 0.437500 0.042969
0.996094 0.773438 0.339844
0.000000 0.304688 0.000000
0.000000 0.304688 0.000000
0.078125 0.304688 0.000000
0.312500 0.308594 0.000000
0.636719 0.320312 0.000000
0.945312 0.402344 0.015625
0.996094 0.542969 0.000000
0.996094 0.792969 0.347656
0.000000 0.660156 0.000000
0.000000 0.660156 0.000000
0.000000 0.660156 0.000000
0.320312 0.660156 0.000000
0.656250 0.660156 0.000000
0.917969 0.679688 0.000000
0.996094 0.734375 0.000000
0.996094 0.839844 0.371094
0.160156 0.910156 0.039062
0.191406 0.910156 0.039062
0.277344 0.910156 0.042969
0.441406 0.906250 0.054688
0.671875 0.898438 0.093750
0.875000 0.890625 0.171875
0.976562 0.890625 0.250000
0.996094 0.910156 0.464844
0.734375 0.972656 0.531250
0.734375 0.972656 0.531250
0.738281 0.972656 0.535156
0.757812 0.968750 0.535156
0.800781 0.968750 0.542969
0.875000 0.964844 0.566406
0.945312 0.957031 0.617188
0.976562 0.953125 0.667969
0.894531 0.972656 0.812500
0.894531 0.972656 0.812500
0.894531 0.972656 0.812500
0.898438 0.972656 0.816406
0.902344 0.972656 0.816406
0.914062 0.968750 0.816406
0.937500 0.968750 0.828125
0.960938 0.964844 0.847656
0.000000 0.000000 0.007812
0.007812 0.000000 0.007812
0.089844 0.000000 0.011719
0.257812 0.000000 0.015625
0.585938 0.000000 0.027344
0.957031 0.117188 0.082031
0.996094 0.386719 0.101562
0.996094 0.761719 0.351562
0.000000 0.007812 0.007812
0.007812 0.007812 0.007812
0.093750 0.007812 0.011719
0.265625 0.000000 0.015625
0.589844 0.000000 0.027344
0.957031 0.148438 0.082031
0.996094 0.398438 0.097656
0.996094 0.765625 0.355469
0.000000 0.097656 0.011719
0.003906 0.097656 0.011719
0.101562 0.101562 0.015625
0.285156 0.101562 0.019531
0.601562 0.097656 0.027344
0.953125 0.230469 0.082031
0.996094 0.437500 0.089844
0.996094 0.769531 0.355469
0.000000 0.304688 0.000000
0.000000 0.304688 0.000000
0.078125 0.308594 0.000000
0.312500 0.312500 0.003906
0.636719 0.320312 0.019531
0.945312 0.402344 0.066406
0.996094 0.542969 0.062500
0.996094 0.789062 0.363281
0.000000 0.660156 0.000000
0.000000 0.660156 0.000000
0.000000 0.660156 0.000000
0.324219 0.660156 0.000000
0.656250 0.660156 0.000000
0.917969 0.679688 0.000000
0.996094 0.734375 0.031250
0.996094 0.839844 0.386719
0.160156 0.910156 0.105469
0.195312 0.910156 0.105469
0.277344 0.910156 0.105469
0.441406 0.906250 0.113281
0.671875 0.898438 0.136719
0.875000 0.890625 0.203125
0.976562 0.890625 0.269531
0.996094 0.910156 0.472656
0.734375 0.972656 0.539062
0.734375 0.972656 0.539062
0.738281 0.972656 0.542969
0.757812 0.968750 0.542969
0.800781 0.968750 0.550781
0.875000 0.960938 0.574219
0.945312 0.957031 0.621094
0.976562 0.953125 0.671875
0.894531 0.972656 0.816406
0.894531 0.972656 0.816406
0.894531 0.972656 0.816406
0.898438 0.972656 0.816406
0.902344 0.972656 0.816406
0.914062 0.968750 0.820312
0.937500 0.968750 0.828125
0.960938 0.964844 0.847656
0.000000 0.000000 0.089844
0.007812 0.000000 0.089844
0.085938 0.000000 0.093750
0.269531 0.000000 0.101562
0.589844 0.000000 0.113281
0.957031 0.121094 0.167969
0.996094 0.386719 0.195312
0.996094 0.761719 0.402344
0.000000 0.003906 0.093750
0.007812 0.003906 0.093750
0.089844 0.003906 0.093750
0.269531 0.000000 0.101562
0.589844 0.000000 0.117188
0.953125 0.152344 0.167969
0.996094 0.402344 0.195312
0.996094 0.761719 0.402344
0.000000 0.097656 0.097656
0.000000 0.097656 0.097656
0.097656 0.097656 0.097656
0.277344 0.105469 0.105469
0.601562 0.101562 0.121094
0.953125 0.234375 0.167969
0.996094 0.437500 0.191406
0.996094 0.769531 0.402344
0.000000 0.308594 0.109375
0.000000 0.308594 0.109375
0.082031 0.308594 0.113281
0.312500 0.312500 0.117188
0.632812 0.324219 0.128906
0.945312 0.402344 0.167969
0.996094 0.542969 0.183594
0.996094 0.789062 0.406250
0.000000 0.664062 0.128906
0.000000 0.664062 0.128906
0.000000 0.664062 0.132812
0.324219 0.664062 0.136719
0.656250 0.664062 0.152344
0.914062 0.679688 0.160156
0.996094 0.730469 0.183594
0.996094 0.835938 0.429688
0.167969 0.906250 0.218750
0.203125 0.906250 0.218750
0.281250 0.906250 0.218750
0.445312 0.902344 0.222656
0.671875 0.898438 0.238281
0.875000 0.886719 0.281250
0.976562 0.890625 0.332031
0.996094 0.906250 0.503906
0.734375 0.968750 0.566406
0.734375 0.968750 0.566406
0.738281 0.968750 0.566406
0.753906 0.968750 0.570312
0.800781 0.964844 0.574219
0.875000 0.960938 0.593750
0.945312 0.953125 0.640625
0.976562 0.953125 0.683594
0.894531 0.972656 0.816406
0.894531 0.972656 0.816406
0.894531 0.972656 0.816406
0.894531 0.972656 0.816406
0.902344 0.972656 0.820312
0.914062 0.968750 0.820312
0.937500 0.968750 0.832031
0.960938 0.964844 0.847656
0.000000 0.000000 0.292969
0.000000 0.000000 0.292969
0.082031 0.000000 0.292969
0.281250 0.000000 0.296875
0.617188 0.000000 0.308594
0.957031 0.121094 0.351562
0.996094 0.390625 0.394531
0.996094 0.757812 0.523438
0.000000 0.000000 0.292969
0.000000 0.000000 0.292969
0.085938 0.000000 0.296875
0.285156 0.000000 0.300781
0.617188 0.000000 0.312500
0.953125 0.152344 0.351562
0.996094 0.402344 0.394531
0.996094 0.757812 0.527344
0.000000 0.082031 0.296875
0.000000 0.082031 0.300781
0.097656 0.085938 0.300781
0.296875 0.085938 0.304688
0.617188 0.089844 0.312500
0.953125 0.234375 0.355469
0.996094 0.437500 0.394531
0.996094 0.765625 0.527344
0.000000 0.308594 0.312500
0.000000 0.308594 0.312500
0.078125 0.312500 0.312500
0.312500 0.312500 0.312500
0.625000 0.332031 0.328125
0.941406 0.406250 0.359375
0.996094 0.542969 0.390625
0.996094 0.785156 0.531250
0.000000 0.660156 0.347656
0.000000 0.660156 0.347656
0.000000 0.660156 0.347656
0.335938 0.660156 0.351562
0.656250 0.660156 0.359375
0.910156 0.679688 0.375000
0.996094 0.726562 0.398438
0.996094 0.832031 0.542969
0.199219 0.902344 0.417969
0.226562 0.902344 0.417969
0.300781 0.902344 0.417969
0.453125 0.898438 0.421875
0.671875 0.890625 0.429688
0.871094 0.882812 0.453125
0.972656 0.882812 0.480469
0.996094 0.902344 0.593750
0.730469 0.964844 0.632812
0.734375 0.964844 0.632812
0.738281 0.964844 0.632812
0.753906 0.964844 0.636719
0.796875 0.960938 0.640625
0.875000 0.957031 0.652344
0.941406 0.953125 0.687500
0.976562 0.949219 0.718750
0.894531 0.972656 0.828125
0.894531 0.972656 0.828125
0.894531 0.972656 0.828125
0.894531 0.972656 0.828125
0.902344 0.968750 0.828125
0.914062 0.968750 0.832031
0.937500 0.968750 0.839844
0.960938 0.964844 0.855469
0.000000 0.000000 0.636719
0.000000 0.000000 0.636719
0.050781 0.000000 0.636719
0.296875 0.000000 0.636719
0.652344 0.000000 0.644531
0.957031 0.101562 0.664062
0.996094 0.394531 0.695312
0.996094 0.746094 0.726562
0.000000 0.000000 0.636719
0.000000 0.000000 0.636719
0.054688 0.000000 0.636719
0.300781 0.000000 0.636719
0.652344 0.000000 0.644531
0.957031 0.140625 0.664062
0.996094 0.406250 0.695312
0.996094 0.750000 0.726562
0.000000 0.000000 0.636719
0.000000 0.000000 0.636719
0.062500 0.000000 0.636719
0.308594 0.000000 0.640625
0.656250 0.000000 0.644531
0.953125 0.234375 0.667969
0.996094 0.441406 0.695312
0.996094 0.753906 0.726562
0.000000 0.312500 0.640625
0.000000 0.312500 0.640625
0.039062 0.316406 0.644531
0.320312 0.320312 0.644531
0.660156 0.332031 0.648438
0.937500 0.410156 0.667969
0.996094 0.542969 0.691406
0.996094 0.773438 0.726562
0.000000 0.656250 0.656250
0.000000 0.656250 0.656250
0.105469 0.656250 0.656250
0.367188 0.656250 0.656250
0.656250 0.656250 0.656250
0.890625 0.671875 0.671875
0.996094 0.714844 0.691406
0.996094 0.820312 0.730469
0.320312 0.882812 0.691406
0.335938 0.882812 0.691406
0.382812 0.882812 0.691406
0.500000 0.878906 0.691406
0.683594 0.875000 0.695312
0.863281 0.867188 0.703125
0.964844 0.871094 0.707031
0.996094 0.890625 0.742188
0.734375 0.957031 0.753906
0.734375 0.957031 0.753906
0.738281 0.957031 0.753906
0.753906 0.953125 0.757812
0.796875 0.953125 0.757812
0.871094 0.949219 0.761719
0.937500 0.945312 0.777344
0.972656 0.945312 0.789062
0.894531 0.968750 0.851562
0.894531 0.968750 0.851562
0.894531 0.968750 0.851562
0.894531 0.968750 0.851562
0.902344 0.968750 0.855469
0.914062 0.968750 0.855469
0.937500 0.964844 0.859375
0.957031 0.960938 0.871094
0.144531 0.238281 0.871094
0.171875 0.238281 0.871094
0.246094 0.238281 0.871094
0.406250 0.246094 0.871094
0.691406 0.265625 0.871094
0.949219 0.359375 0.875000
0.996094 0.503906 0.878906
0.996094 0.757812 0.875000
0.144531 0.257812 0.871094
0.171875 0.257812 0.871094
0.246094 0.257812 0.871094
0.406250 0.265625 0.871094
0.691406 0.285156 0.871094
0.949219 0.371094 0.875000
0.996094 0.511719 0.878906
0.996094 0.757812 0.875000
0.140625 0.316406 0.867188
0.171875 0.316406 0.867188
0.246094 0.316406 0.867188
0.410156 0.320312 0.867188
0.687500 0.335938 0.867188
0.945312 0.410156 0.871094
0.996094 0.535156 0.878906
0.996094 0.761719 0.875000
0.132812 0.460938 0.867188
0.164062 0.460938 0.867188
0.246094 0.460938 0.867188
0.410156 0.464844 0.867188
0.683594 0.472656 0.867188
0.933594 0.511719 0.871094
0.996094 0.605469 0.878906
0.996094 0.777344 0.875000
0.121094 0.695312 0.863281
0.160156 0.695312 0.863281
0.246094 0.695312 0.863281
0.410156 0.695312 0.863281
0.664062 0.691406 0.867188
0.898438 0.695312 0.867188
0.996094 0.730469 0.871094
0.996094 0.816406 0.875000
0.496094 0.871094 0.863281
0.503906 0.871094 0.863281
0.527344 0.871094 0.863281
0.597656 0.867188 0.863281
0.726562 0.863281 0.859375
0.859375 0.859375 0.859375
0.949219 0.863281 0.867188
0.988281 0.882812 0.871094
0.761719 0.945312 0.871094
0.761719 0.941406 0.871094
0.765625 0.941406 0.871094
0.777344 0.941406 0.871094
0.812500 0.941406 0.871094
0.871094 0.937500 0.875000
0.933594 0.933594 0.875000
0.964844 0.937500 0.878906
0.894531 0.964844 0.898438
0.894531 0.964844 0.898438
0.894531 0.964844 0.898438
0.894531 0.964844 0.898438
0.902344 0.964844 0.898438
0.914062 0.960938 0.898438
0.937500 0.960938 0.898438
0.957031 0.960938 0.906250
0.531250 0.683594 0.945312
0.535156 0.683594 0.945312
0.554688 0.683594 0.945312
0.613281 0.683594 0.945312
0.738281 0.687500 0.945312
0.902344 0.695312 0.945312
0.996094 0.722656 0.945312
0.996094 0.808594 0.941406
0.527344 0.687500 0.945312
0.535156 0.687500 0.945312
0.554688 0.687500 0.945312
0.609375 0.687500 0.945312
0.734375 0.687500 0.945312
0.902344 0.695312 0.945312
0.996094 0.722656 0.945312
0.996094 0.808594 0.941406
0.527344 0.699219 0.945312
0.531250 0.699219 0.945312
0.550781 0.699219 0.945312
0.609375 0.699219 0.945312
0.734375 0.699219 0.945312
0.898438 0.703125 0.945312
0.996094 0.730469 0.945312
0.996094 0.812500 0.941406
0.519531 0.726562 0.941406
0.523438 0.726562 0.941406
0.542969 0.726562 0.941406
0.601562 0.726562 0.941406
0.726562 0.726562 0.941406
0.894531 0.730469 0.945312
0.996094 0.750000 0.941406
0.996094 0.820312 0.941406
0.484375 0.796875 0.941406
0.492188 0.796875 0.941406
0.515625 0.796875 0.941406
0.578125 0.796875 0.941406
0.710938 0.792969 0.941406
0.875000 0.789062 0.941406
0.976562 0.796875 0.941406
0.996094 0.843750 0.937500
0.523438 0.886719 0.937500
0.527344 0.886719 0.937500
0.546875 0.886719 0.937500
0.597656 0.886719 0.937500
0.710938 0.878906 0.937500
0.855469 0.875000 0.937500
0.949219 0.875000 0.937500
0.980469 0.886719 0.937500
0.812500 0.937500 0.933594
0.812500 0.937500 0.933594
0.816406 0.937500 0.933594
0.824219 0.937500 0.933594
0.843750 0.933594 0.933594
0.886719 0.933594 0.933594
0.933594 0.933594 0.933594
0.960938 0.933594 0.933594
0.902344 0.957031 0.937500
0.902344 0.957031 0.937500
0.902344 0.957031 0.937500
0.902344 0.957031 0.937500
0.906250 0.957031 0.937500
0.917969 0.957031 0.937500
0.937500 0.957031 0.937500
0.957031 0.957031 0.937500
0.722656 0.882812 0.960938
0.722656 0.882812 0.960938
0.730469 0.882812 0.960938
0.746094 0.878906 0.960938
0.796875 0.878906 0.960938
0.878906 0.875000 0.960938
0.949219 0.875000 0.960938
0.980469 0.886719 0.960938
0.722656 0.882812 0.960938
0.722656 0.882812 0.960938
0.730469 0.882812 0.960938
0.746094 0.882812 0.960938
0.796875 0.878906 0.960938
0.878906 0.875000 0.960938
0.949219 0.875000 0.960938
0.980469 0.886719 0.960938
0.722656 0.882812 0.960938
0.726562 0.882812 0.960938
0.730469 0.882812 0.960938
0.750000 0.882812 0.960938
0.796875 0.878906 0.960938
0.878906 0.875000 0.960938
0.949219 0.875000 0.960938
0.980469 0.886719 0.960938
0.722656 0.886719 0.960938
0.726562 0.886719 0.960938
0.730469 0.886719 0.960938
0.750000 0.886719 0.960938
0.796875 0.882812 0.960938
0.878906 0.878906 0.960938
0.949219 0.878906 0.960938
0.980469 0.890625 0.960938
0.730469 0.894531 0.960938
0.734375 0.894531 0.960938
0.738281 0.894531 0.960938
0.753906 0.894531 0.960938
0.796875 0.894531 0.960938
0.875000 0.890625 0.960938
0.945312 0.886719 0.960938
0.976562 0.894531 0.957031
0.757812 0.917969 0.957031
0.761719 0.917969 0.957031
0.765625 0.917969 0.957031
0.777344 0.914062 0.957031
0.808594 0.914062 0.957031
0.875000 0.910156 0.957031
0.937500 0.910156 0.957031
0.972656 0.914062 0.957031
0.824219 0.941406 0.957031
0.824219 0.941406 0.957031
0.828125 0.941406 0.957031
0.832031 0.941406 0.957031
0.847656 0.941406 0.957031
0.882812 0.937500 0.957031
0.929688 0.937500 0.957031
0.960938 0.937500 0.957031
0.917969 0.957031 0.953125
0.917969 0.957031 0.953125
0.917969 0.957031 0.953125
0.917969 0.957031 0.953125
0.921875 0.957031 0.953125
0.929688 0.957031 0.953125
0.941406 0.953125 0.953125
0.953125 0.953125 0.953125
