Dependent/resource/extra/lut/tonelut.cube
LUT_3D_SIZE 5
DOMAIN_MIN 0.000000 0.000000 0.000000
DOMAIN_MAX 0.903226 0.903226 0.903226
0.000000 0.000000 0.000000
0.070312 0.000000 0.000000
0.398438 0.000000 0.000000
0.996094 0.203125 0.066406
0.996094 0.761719 0.339844
0.000000 0.062500 0.000000
0.066406 0.066406 0.000000
0.414062 0.054688 0.000000
0.996094 0.261719 0.062500
0.996094 0.769531 0.339844
0.000000 0.468750 0.000000
0.000000 0.468750 0.000000
0.476562 0.476562 0.000000
0.980469 0.554688 0.000000
0.996094 0.812500 0.355469
0.386719 0.937500 0.183594
0.421875 0.937500 0.183594
0.605469 0.933594 0.199219
0.902344 0.917969 0.296875
0.996094 0.925781 0.503906
0.894531 0.972656 0.812500
0.894531 0.972656 0.812500
0.898438 0.972656 0.816406
0.921875 0.968750 0.820312
0.960938 0.964844 0.847656
0.000000 0.000000 0.058594
0.054688 0.000000 0.062500
0.402344 0.000000 0.074219
0.996094 0.207031 0.152344
0.996094 0.761719 0.382812
0.000000 0.066406 0.066406
0.066406 0.066406 0.066406
0.414062 0.062500 0.082031
0.996094 0.265625 0.152344
0.996094 0.769531 0.386719
0.000000 0.468750 0.074219
0.000000 0.472656 0.078125
0.476562 0.476562 0.089844
0.980469 0.554688 0.128906
0.996094 0.808594 0.398438
0.390625 0.933594 0.261719
0.425781 0.933594 0.261719
0.609375 0.929688 0.273438
0.902344 0.917969 0.347656
0.996094 0.925781 0.531250
0.894531 0.972656 0.816406
0.894531 0.972656 0.816406
0.898438 0.972656 0.816406
0.921875 0.968750 0.820312
0.960938 0.964844 0.847656
0.000000 0.000000 0.449219
0.011719 0.000000 0.453125
0.445312 0.000000 0.460938
0.996094 0.203125 0.515625
0.996094 0.750000 0.625000
0.000000 0.000000 0.453125
0.023438 0.000000 0.457031
0.453125 0.000000 0.460938
0.996094 0.265625 0.515625
0.996094 0.757812 0.625000
0.000000 0.476562 0.476562
0.000000 0.476562 0.476562
0.480469 0.480469 0.480469
0.968750 0.550781 0.523438
0.996094 0.796875 0.628906
0.414062 0.921875 0.578125
0.445312 0.921875 0.578125
0.613281 0.917969 0.582031
0.894531 0.902344 0.613281
0.992188 0.914062 0.679688
0.894531 0.968750 0.835938
0.894531 0.968750 0.835938
0.898438 0.968750 0.839844
0.921875 0.968750 0.839844
0.960938 0.964844 0.863281
0.253906 0.367188 0.898438
0.304688 0.367188 0.898438
0.566406 0.378906 0.898438
0.980469 0.468750 0.902344
0.996094 0.765625 0.898438
0.253906 0.406250 0.898438
0.304688 0.406250 0.898438
0.566406 0.414062 0.898438
0.976562 0.496094 0.902344
0.996094 0.769531 0.898438
0.246094 0.617188 0.894531
0.300781 0.617188 0.894531
0.558594 0.617188 0.894531
0.949219 0.640625 0.898438
0.996094 0.800781 0.898438
0.605469 0.894531 0.886719
0.621094 0.894531 0.886719
0.703125 0.890625 0.886719
0.886719 0.886719 0.886719
0.980469 0.898438 0.894531
0.894531 0.960938 0.910156
0.894531 0.960938 0.910156
0.898438 0.960938 0.910156
0.917969 0.960938 0.910156
0.957031 0.957031 0.914062
0.722656 0.882812 0.960938
0.726562 0.882812 0.960938
0.765625 0.878906 0.960938
0.898438 0.875000 0.960938
0.980469 0.886719 0.960938
0.722656 0.882812 0.960938
0.726562 0.882812 0.960938
0.765625 0.878906 0.960938
0.898438 0.875000 0.960938
0.980469 0.886719 0.960938
0.726562 0.890625 0.960938
0.730469 0.890625 0.960938
0.769531 0.886719 0.960938
0.898438 0.882812 0.960938
0.980469 0.890625 0.960938
0.773438 0.921875 0.957031
0.777344 0.921875 0.957031
0.796875 0.921875 0.957031
0.890625 0.917969 0.957031
0.968750 0.917969 0.957031
0.917969 0.957031 0.953125
0.917969 0.957031 0.953125
0.921875 0.957031 0.953125
0.929688 0.957031 0.953125
0.953125 0.953125 0.953125
