Dependent/resource/extra/lut/tonelut.cube
LUT_3D_SIZE 32
0.000000 0.000000 0.000000
0.000000 0.000000 0.000000
0.000000 0.000000 0.000000
0.003906 0.000000 0.000000
0.011719 0.000000 0.000000
0.023438 0.000000 0.000000
0.046875 0.000000 0.000000
0.070312 0.000000 0.000000
0.097656 0.000000 0.000000
0.125000 0.000000 0.000000
0.160156 0.000000 0.000000
0.203125 0.000000 0.000000
0.257812 0.000000 0.000000
0.320312 0.000000 0.000000
0.398438 0.000000 0.000000
0.484375 0.000000 0.000000
0.585938 0.000000 0.003906
0.691406 0.000000 0.007812
0.796875 0.000000 0.015625
0.886719 0.000000 0.031250
0.957031 0.113281 0.050781
0.996094 0.203125 0.066406
0.996094 0.265625 0.074219
0.996094 0.316406 0.062500
0.996094 0.386719 0.058594
0.996094 0.492188 0.097656
0.996094 0.601562 0.164062
0.996094 0.691406 0.246094
0.996094 0.761719 0.339844
0.996094 0.816406 0.437500
0.996094 0.855469 0.539062
0.996094 0.886719 0.632812
0.000000 0.000000 0.000000
0.000000 0.000000 0.000000
0.000000 0.000000 0.000000
0.003906 0.000000 0.000000
0.011719 0.000000 0.000000
0.023438 0.000000 0.000000
0.046875 0.000000 0.000000
0.070312 0.000000 0.000000
0.097656 0.000000 0.000000
0.125000 0.000000 0.000000
0.160156 0.000000 0.000000
0.203125 0.000000 0.000000
0.257812 0.000000 0.000000
0.324219 0.000000 0.000000
0.398438 0.000000 0.000000
0.484375 0.000000 0.000000
0.585938 0.000000 0.003906
0.691406 0.000000 0.007812
0.796875 0.000000 0.015625
0.886719 0.000000 0.031250
0.957031 0.121094 0.050781
0.996094 0.207031 0.066406
0.996094 0.269531 0.074219
0.996094 0.316406 0.062500
0.996094 0.386719 0.058594
0.996094 0.492188 0.097656
0.996094 0.601562 0.164062
0.996094 0.691406 0.246094
0.996094 0.761719 0.339844
0.996094 0.816406 0.437500
0.996094 0.855469 0.539062
0.996094 0.886719 0.632812
0.000000 0.000000 0.000000
0.000000 0.000000 0.000000
0.000000 0.000000 0.000000
0.003906 0.000000 0.000000
0.007812 0.000000 0.000000
0.023438 0.000000 0.000000
0.042969 0.000000 0.000000
0.070312 0.000000 0.000000
0.093750 0.000000 0.000000
0.125000 0.000000 0.000000
0.160156 0.000000 0.000000
0.207031 0.000000 0.000000
0.261719 0.000000 0.000000
0.324219 0.000000 0.000000
0.398438 0.000000 0.000000
0.488281 0.000000 0.000000
0.585938 0.000000 0.003906
0.691406 0.000000 0.007812
0.796875 0.000000 0.015625
0.886719 0.000000 0.031250
0.957031 0.125000 0.050781
0.996094 0.210938 0.066406
0.996094 0.269531 0.074219
0.996094 0.320312 0.062500
0.996094 0.390625 0.058594
0.996094 0.496094 0.097656
0.996094 0.601562 0.164062
0.996094 0.695312 0.246094
0.996094 0.765625 0.339844
0.996094 0.816406 0.437500
0.996094 0.855469 0.539062
0.996094 0.886719 0.632812
0.000000 0.003906 0.000000
0.000000 0.003906 0.000000
0.000000 0.003906 0.000000
0.003906 0.003906 0.000000
0.007812 0.003906 0.000000
0.019531 0.003906 0.000000
0.039062 0.003906 0.000000
0.066406 0.003906 0.000000
0.093750 0.000000 0.000000
0.125000 0.000000 0.000000
0.160156 0.000000 0.000000
0.207031 0.000000 0.000000
0.261719 0.000000 0.000000
0.324219 0.000000 0.000000
0.398438 0.000000 0.000000
0.488281 0.000000 0.000000
0.585938 0.000000 0.003906
0.691406 0.000000 0.007812
0.796875 0.000000 0.015625
0.886719 0.011719 0.027344
0.957031 0.136719 0.050781
0.996094 0.214844 0.066406
0.996094 0.277344 0.070312
0.996094 0.324219 0.062500
0.996094 0.394531 0.058594
0.996094 0.496094 0.093750
0.996094 0.605469 0.164062
0.996094 0.695312 0.246094
0.996094 0.765625 0.339844
0.996094 0.816406 0.441406
0.996094 0.859375 0.539062
0.996094 0.886719 0.632812
0.000000 0.007812 0.000000
0.000000 0.007812 0.000000
0.000000 0.007812 0.000000
0.003906 0.007812 0.000000
0.007812 0.007812 0.000000
0.019531 0.011719 0.000000
0.039062 0.011719 0.000000
0.062500 0.007812 0.000000
0.093750 0.007812 0.000000
0.125000 0.007812 0.000000
0.164062 0.003906 0.000000
0.210938 0.000000 0.000000
0.265625 0.000000 0.000000
0.328125 0.000000 0.000000
0.402344 0.000000 0.000000
0.488281 0.000000 0.000000
0.589844 0.000000 0.003906
0.695312 0.000000 0.007812
0.796875 0.000000 0.015625
0.886719 0.042969 0.027344
0.957031 0.148438 0.050781
0.996094 0.222656 0.066406
0.996094 0.281250 0.070312
0.996094 0.332031 0.062500
0.996094 0.398438 0.054688
0.996094 0.500000 0.093750
0.996094 0.605469 0.164062
0.996094 0.695312 0.246094
0.996094 0.765625 0.339844
0.996094 0.816406 0.441406
0.996094 0.859375 0.539062
0.996094 0.886719 0.632812
0.000000 0.019531 0.000000
0.000000 0.019531 0.000000
0.000000 0.019531 0.000000
0.003906 0.019531 0.000000
0.011719 0.019531 0.000000
0.019531 0.019531 0.000000
0.039062 0.019531 0.000000
0.062500 0.019531 0.000000
0.093750 0.019531 0.000000
0.125000 0.019531 0.000000
0.164062 0.015625 0.000000
0.210938 0.015625 0.000000
0.265625 0.007812 0.000000
0.328125 0.000000 0.000000
0.406250 0.000000 0.000000
0.492188 0.000000 0.000000
0.589844 0.000000 0.000000
0.695312 0.000000 0.003906
0.800781 0.000000 0.011719
0.886719 0.074219 0.027344
0.957031 0.160156 0.046875
0.996094 0.234375 0.066406
0.996094 0.289062 0.070312
0.996094 0.335938 0.058594
0.996094 0.406250 0.054688
0.996094 0.503906 0.093750
0.996094 0.609375 0.164062
0.996094 0.699219 0.246094
0.996094 0.765625 0.339844
0.996094 0.820312 0.441406
0.996094 0.859375 0.539062
0.996094 0.886719 0.632812
0.000000 0.035156 0.000000
0.000000 0.039062 0.000000
0.000000 0.039062 0.000000
0.003906 0.039062 0.000000
0.011719 0.039062 0.000000
0.019531 0.039062 0.000000
0.039062 0.039062 0.000000
0.062500 0.039062 0.000000
0.093750 0.039062 0.000000
0.128906 0.039062 0.000000
0.167969 0.039062 0.000000
0.214844 0.039062 0.000000
0.273438 0.035156 0.000000
0.332031 0.027344 0.000000
0.406250 0.015625 0.000000
0.496094 0.000000 0.000000
0.593750 0.000000 0.000000
0.695312 0.000000 0.003906
0.800781 0.023438 0.011719
0.886719 0.105469 0.027344
0.953125 0.179688 0.046875
0.996094 0.246094 0.062500
0.996094 0.300781 0.066406
0.996094 0.347656 0.054688
0.996094 0.414062 0.050781
0.996094 0.511719 0.093750
0.996094 0.613281 0.164062
0.996094 0.699219 0.246094
0.996094 0.765625 0.339844
0.996094 0.820312 0.441406
0.996094 0.859375 0.542969
0.996094 0.886719 0.632812
0.000000 0.062500 0.000000
0.000000 0.062500 0.000000
0.000000 0.062500 0.000000
0.000000 0.062500 0.000000
0.007812 0.062500 0.000000
0.019531 0.066406 0.000000
0.042969 0.066406 0.000000
0.066406 0.066406 0.000000
0.097656 0.066406 0.000000
0.132812 0.066406 0.000000
0.171875 0.066406 0.000000
0.222656 0.066406 0.000000
0.277344 0.066406 0.000000
0.339844 0.062500 0.000000
0.414062 0.054688 0.000000
0.500000 0.046875 0.000000
0.597656 0.042969 0.000000
0.699219 0.046875 0.003906
0.800781 0.082031 0.011719
0.886719 0.136719 0.027344
0.953125 0.203125 0.046875
0.996094 0.261719 0.062500
0.996094 0.312500 0.066406
0.996094 0.359375 0.050781
0.996094 0.421875 0.046875
0.996094 0.519531 0.089844
0.996094 0.621094 0.164062
0.996094 0.703125 0.246094
0.996094 0.769531 0.339844
0.996094 0.820312 0.441406
0.996094 0.859375 0.542969
0.996094 0.886719 0.632812
0.000000 0.093750 0.000000
0.000000 0.093750 0.000000
0.000000 0.093750 0.000000
0.000000 0.097656 0.000000
0.000000 0.097656 0.000000
0.015625 0.097656 0.000000
0.039062 0.097656 0.000000
0.070312 0.097656 0.000000
0.101562 0.097656 0.000000
0.136719 0.101562 0.000000
0.179688 0.101562 0.000000
0.226562 0.101562 0.000000
0.285156 0.101562 0.000000
0.347656 0.097656 0.000000
0.417969 0.097656 0.000000
0.503906 0.093750 0.000000
0.601562 0.093750 0.000000
0.703125 0.101562 0.003906
0.800781 0.128906 0.011719
0.886719 0.171875 0.023438
0.953125 0.230469 0.042969
0.996094 0.285156 0.058594
0.996094 0.332031 0.062500
0.996094 0.375000 0.046875
0.996094 0.437500 0.042969
0.996094 0.527344 0.089844
0.996094 0.625000 0.164062
0.996094 0.707031 0.246094
0.996094 0.773438 0.339844
0.996094 0.820312 0.441406
0.996094 0.859375 0.542969
0.996094 0.886719 0.632812
0.000000 0.132812 0.000000
0.000000 0.132812 0.000000
0.000000 0.132812 0.000000
0.000000 0.136719 0.000000
0.000000 0.136719 0.000000
0.007812 0.136719 0.000000
0.035156 0.136719 0.000000
0.066406 0.136719 0.000000
0.101562 0.136719 0.000000
0.140625 0.140625 0.000000
0.183594 0.140625 0.000000
0.234375 0.140625 0.000000
0.292969 0.140625 0.000000
0.355469 0.140625 0.000000
0.429688 0.140625 0.000000
0.511719 0.140625 0.000000
0.605469 0.144531 0.000000
0.707031 0.152344 0.000000
0.804688 0.175781 0.007812
0.886719 0.214844 0.023438
0.953125 0.261719 0.039062
0.996094 0.312500 0.054688
0.996094 0.355469 0.054688
0.996094 0.394531 0.039062
0.996094 0.457031 0.035156
0.996094 0.542969 0.085938
0.996094 0.632812 0.164062
0.996094 0.710938 0.246094
0.996094 0.773438 0.339844
0.996094 0.824219 0.441406
0.996094 0.859375 0.542969
0.996094 0.886719 0.632812
0.000000 0.183594 0.000000
0.000000 0.183594 0.000000
0.000000 0.183594 0.000000
0.000000 0.183594 0.000000
0.000000 0.183594 0.000000
0.000000 0.183594 0.000000
0.019531 0.183594 0.000000
0.062500 0.183594 0.000000
0.101562 0.187500 0.000000
0.144531 0.187500 0.000000
0.187500 0.187500 0.000000
0.242188 0.187500 0.000000
0.300781 0.187500 0.000000
0.367188 0.187500 0.000000
0.441406 0.187500 0.000000
0.523438 0.191406 0.000000
0.617188 0.195312 0.000000
0.710938 0.207031 0.000000
0.808594 0.226562 0.003906
0.886719 0.257812 0.019531
0.953125 0.300781 0.035156
0.996094 0.343750 0.046875
0.996094 0.382812 0.046875
0.996094 0.421875 0.023438
0.996094 0.480469 0.023438
0.996094 0.558594 0.082031
0.996094 0.644531 0.164062
0.996094 0.718750 0.250000
0.996094 0.777344 0.343750
0.996094 0.824219 0.445312
0.996094 0.863281 0.542969
0.996094 0.890625 0.632812
0.000000 0.238281 0.000000
0.000000 0.238281 0.000000
0.000000 0.238281 0.000000
0.000000 0.238281 0.000000
0.000000 0.238281 0.000000
0.000000 0.238281 0.000000
0.000000 0.242188 0.000000
0.042969 0.242188 0.000000
0.093750 0.242188 0.000000
0.140625 0.242188 0.000000
0.187500 0.242188 0.000000
0.242188 0.242188 0.000000
0.304688 0.242188 0.000000
0.375000 0.242188 0.000000
0.453125 0.246094 0.000000
0.535156 0.246094 0.000000
0.625000 0.253906 0.000000
0.718750 0.265625 0.000000
0.808594 0.285156 0.000000
0.886719 0.312500 0.011719
0.949219 0.347656 0.027344
0.996094 0.382812 0.039062
0.996094 0.421875 0.031250
0.996094 0.457031 0.007812
0.996094 0.507812 0.007812
0.996094 0.582031 0.078125
0.996094 0.660156 0.164062
0.996094 0.726562 0.250000
0.996094 0.785156 0.343750
0.996094 0.828125 0.445312
0.996094 0.863281 0.542969
0.996094 0.890625 0.636719
0.000000 0.304688 0.000000
0.000000 0.304688 0.000000
0.000000 0.304688 0.000000
0.000000 0.304688 0.000000
0.000000 0.304688 0.000000
0.000000 0.304688 0.000000
0.000000 0.304688 0.000000
0.003906 0.304688 0.000000
0.078125 0.304688 0.000000
0.132812 0.308594 0.000000
0.187500 0.308594 0.000000
0.246094 0.308594 0.000000
0.312500 0.308594 0.000000
0.382812 0.308594 0.000000
0.460938 0.312500 0.000000
0.546875 0.312500 0.000000
0.636719 0.320312 0.000000
0.726562 0.328125 0.000000
0.812500 0.347656 0.000000
0.886719 0.371094 0.003906
0.945312 0.402344 0.015625
0.996094 0.433594 0.019531
0.996094 0.464844 0.007812
0.996094 0.496094 0.000000
0.996094 0.542969 0.000000
0.996094 0.609375 0.074219
0.996094 0.679688 0.164062
0.996094 0.738281 0.253906
0.996094 0.792969 0.347656
0.996094 0.832031 0.445312
0.996094 0.867188 0.546875
0.996094 0.890625 0.636719
0.000000 0.378906 0.000000
0.000000 0.382812 0.000000
0.000000 0.382812 0.000000
0.000000 0.382812 0.000000
0.000000 0.382812 0.000000
0.000000 0.382812 0.000000
0.000000 0.382812 0.000000
0.000000 0.382812 0.000000
0.035156 0.382812 0.000000
0.117188 0.382812 0.000000
0.183594 0.382812 0.000000
0.246094 0.382812 0.000000
0.312500 0.386719 0.000000
0.386719 0.386719 0.000000
0.468750 0.386719 0.000000
0.558594 0.390625 0.000000
0.648438 0.394531 0.000000
0.734375 0.406250 0.000000
0.816406 0.417969 0.000000
0.882812 0.437500 0.000000
0.941406 0.464844 0.000000
0.988281 0.488281 0.000000
0.996094 0.515625 0.000000
0.996094 0.542969 0.000000
0.996094 0.585938 0.000000
0.996094 0.640625 0.070312
0.996094 0.699219 0.164062
0.996094 0.753906 0.257812
0.996094 0.800781 0.351562
0.996094 0.839844 0.449219
0.996094 0.871094 0.546875
0.996094 0.894531 0.636719
0.000000 0.468750 0.000000
0.000000 0.468750 0.000000
0.000000 0.468750 0.000000
0.000000 0.468750 0.000000
0.000000 0.468750 0.000000
0.000000 0.468750 0.000000
0.000000 0.468750 0.000000
0.000000 0.468750 0.000000
0.000000 0.468750 0.000000
0.093750 0.468750 0.000000
0.171875 0.472656 0.000000
0.242188 0.472656 0.000000
0.312500 0.472656 0.000000
0.390625 0.472656 0.000000
0.476562 0.476562 0.000000
0.566406 0.476562 0.000000
0.656250 0.480469 0.000000
0.742188 0.488281 0.000000
0.816406 0.500000 0.000000
0.878906 0.515625 0.000000
0.933594 0.531250 0.000000
0.980469 0.554688 0.000000
0.996094 0.574219 0.000000
0.996094 0.597656 0.000000
0.996094 0.632812 0.000000
0.996094 0.679688 0.066406
0.996094 0.726562 0.167969
0.996094 0.769531 0.261719
0.996094 0.812500 0.355469
0.996094 0.847656 0.453125
0.996094 0.875000 0.550781
0.996094 0.894531 0.640625
0.000000 0.566406 0.000000
0.000000 0.566406 0.000000
0.000000 0.566406 0.000000
0.000000 0.566406 0.000000
0.000000 0.566406 0.000000
0.000000 0.566406 0.000000
0.000000 0.566406 0.000000
0.000000 0.566406 0.000000
0.000000 0.566406 0.000000
0.054688 0.566406 0.000000
0.160156 0.566406 0.000000
0.242188 0.566406 0.000000
0.316406 0.570312 0.000000
0.394531 0.570312 0.000000
0.480469 0.570312 0.000000
0.570312 0.570312 0.000000
0.660156 0.574219 0.000000
0.742188 0.578125 0.000000
0.816406 0.582031 0.000000
0.875000 0.593750 0.000000
0.925781 0.605469 0.000000
0.968750 0.621094 0.000000
0.996094 0.636719 0.000000
0.996094 0.656250 0.000000
0.996094 0.683594 0.000000
0.996094 0.718750 0.074219
0.996094 0.753906 0.175781
0.996094 0.789062 0.269531
0.996094 0.824219 0.363281
0.996094 0.855469 0.460938
0.996094 0.878906 0.554688
0.996094 0.898438 0.640625
0.000000 0.660156 0.000000
0.000000 0.660156 0.000000
0.000000 0.660156 0.000000
0.000000 0.660156 0.000000
0.000000 0.660156 0.000000
0.000000 0.660156 0.000000
0.000000 0.660156 0.000000
0.000000 0.660156 0.000000
0.000000 0.660156 0.000000
0.039062 0.660156 0.000000
0.160156 0.660156 0.000000
0.246094 0.660156 0.000000
0.320312 0.660156 0.000000
0.402344 0.660156 0.000000
0.484375 0.660156 0.000000
0.570312 0.660156 0.000000
0.656250 0.660156 0.000000
0.738281 0.664062 0.000000
0.808594 0.667969 0.000000
0.867188 0.671875 0.000000
0.917969 0.679688 0.000000
0.957031 0.687500 0.000000
0.992188 0.699219 0.000000
0.996094 0.714844 0.000000
0.996094 0.734375 0.000000
0.996094 0.757812 0.089844
0.996094 0.785156 0.191406
0.996094 0.812500 0.281250
0.996094 0.839844 0.371094
0.996094 0.863281 0.468750
0.996094 0.886719 0.562500
0.996094 0.902344 0.644531
0.000000 0.746094 0.000000
0.000000 0.746094 0.000000
0.000000 0.746094 0.000000
0.000000 0.746094 0.000000
0.000000 0.746094 0.000000
0.000000 0.746094 0.000000
0.000000 0.746094 0.000000
0.000000 0.746094 0.000000
0.000000 0.746094 0.000000
0.089844 0.746094 0.000000
0.187500 0.746094 0.000000
0.265625 0.746094 0.000000
0.339844 0.746094 0.000000
0.414062 0.746094 0.000000
0.496094 0.742188 0.000000
0.578125 0.742188 0.000000
0.656250 0.742188 0.000000
0.734375 0.742188 0.000000
0.800781 0.742188 0.000000
0.859375 0.742188 0.000000
0.906250 0.746094 0.000000
0.945312 0.750000 0.000000
0.976562 0.757812 0.000000
0.996094 0.765625 0.000000
0.996094 0.781250 0.000000
0.996094 0.796875 0.121094
0.996094 0.816406 0.210938
0.996094 0.835938 0.296875
0.996094 0.855469 0.386719
0.996094 0.875000 0.480469
0.996094 0.894531 0.570312
0.996094 0.906250 0.652344
0.000000 0.816406 0.000000
0.000000 0.816406 0.000000
0.000000 0.816406 0.000000
0.000000 0.816406 0.000000
0.000000 0.816406 0.000000
0.000000 0.816406 0.000000
0.000000 0.816406 0.000000
0.000000 0.816406 0.000000
0.058594 0.816406 0.000000
0.152344 0.812500 0.000000
0.226562 0.812500 0.000000
0.292969 0.812500 0.000000
0.363281 0.812500 0.000000
0.433594 0.812500 0.000000
0.507812 0.808594 0.000000
0.585938 0.808594 0.000000
0.660156 0.804688 0.000000
0.726562 0.804688 0.000000
0.792969 0.804688 0.000000
0.847656 0.800781 0.000000
0.898438 0.804688 0.000000
0.933594 0.804688 0.000000
0.964844 0.808594 0.000000
0.984375 0.816406 0.000000
0.996094 0.824219 0.078125
0.996094 0.832031 0.164062
0.996094 0.847656 0.242188
0.996094 0.859375 0.320312
0.996094 0.875000 0.406250
0.996094 0.890625 0.492188
0.996094 0.902344 0.578125
0.996094 0.914062 0.656250
0.000000 0.871094 0.000000
0.000000 0.871094 0.000000
0.000000 0.871094 0.000000
0.000000 0.871094 0.000000
0.000000 0.871094 0.000000
0.000000 0.871094 0.000000
0.000000 0.867188 0.000000
0.089844 0.867188 0.000000
0.152344 0.867188 0.000000
0.210938 0.867188 0.000000
0.269531 0.867188 0.000000
0.324219 0.867188 0.000000
0.386719 0.867188 0.000000
0.457031 0.863281 0.000000
0.523438 0.863281 0.000000
0.593750 0.859375 0.000000
0.660156 0.859375 0.000000
0.726562 0.855469 0.000000
0.785156 0.855469 0.019531
0.839844 0.851562 0.042969
0.886719 0.851562 0.058594
0.921875 0.851562 0.070312
0.949219 0.855469 0.082031
0.972656 0.855469 0.113281
0.988281 0.859375 0.160156
0.996094 0.867188 0.218750
0.996094 0.875000 0.285156
0.996094 0.882812 0.355469
0.996094 0.894531 0.429688
0.996094 0.902344 0.511719
0.996094 0.910156 0.593750
0.996094 0.921875 0.664062
0.160156 0.910156 0.039062
0.164062 0.910156 0.039062
0.171875 0.910156 0.039062
0.179688 0.910156 0.039062
0.191406 0.910156 0.039062
0.207031 0.910156 0.039062
0.226562 0.910156 0.042969
0.250000 0.910156 0.042969
0.277344 0.910156 0.042969
0.308594 0.910156 0.046875
0.347656 0.906250 0.046875
0.394531 0.906250 0.050781
0.441406 0.906250 0.054688
0.496094 0.906250 0.062500
0.554688 0.902344 0.070312
0.613281 0.902344 0.082031
0.671875 0.898438 0.093750
0.730469 0.894531 0.109375
0.785156 0.894531 0.128906
0.832031 0.890625 0.152344
0.875000 0.890625 0.171875
0.910156 0.890625 0.191406
0.937500 0.890625 0.207031
0.960938 0.890625 0.226562
0.976562 0.890625 0.250000
0.988281 0.894531 0.285156
0.996094 0.898438 0.335938
0.996094 0.906250 0.394531
0.996094 0.910156 0.464844
0.996094 0.914062 0.535156
0.996094 0.921875 0.609375
0.996094 0.925781 0.675781
0.386719 0.937500 0.183594
0.390625 0.937500 0.183594
0.390625 0.937500 0.183594
0.394531 0.937500 0.183594
0.398438 0.937500 0.183594
0.406250 0.937500 0.183594
0.414062 0.937500 0.183594
0.421875 0.937500 0.183594
0.437500 0.937500 0.183594
0.453125 0.933594 0.187500
0.472656 0.933594 0.187500
0.500000 0.933594 0.187500
0.531250 0.933594 0.191406
0.566406 0.933594 0.195312
0.605469 0.933594 0.199219
0.652344 0.929688 0.207031
0.695312 0.929688 0.214844
0.742188 0.925781 0.222656
0.789062 0.921875 0.238281
0.832031 0.921875 0.253906
0.871094 0.917969 0.273438
0.902344 0.917969 0.296875
0.929688 0.917969 0.312500
0.949219 0.917969 0.328125
0.968750 0.917969 0.343750
0.980469 0.917969 0.367188
0.988281 0.921875 0.398438
0.996094 0.921875 0.449219
0.996094 0.925781 0.503906
0.996094 0.929688 0.566406
0.996094 0.929688 0.628906
0.996094 0.933594 0.691406
0.546875 0.953125 0.308594
0.546875 0.953125 0.308594
0.546875 0.953125 0.308594
0.550781 0.953125 0.308594
0.550781 0.953125 0.308594
0.554688 0.953125 0.308594
0.558594 0.953125 0.308594
0.562500 0.953125 0.308594
0.570312 0.953125 0.308594
0.578125 0.953125 0.308594
0.589844 0.953125 0.312500
0.601562 0.953125 0.312500
0.621094 0.953125 0.312500
0.640625 0.953125 0.316406
0.667969 0.949219 0.316406
0.695312 0.949219 0.320312
0.730469 0.949219 0.328125
0.765625 0.945312 0.335938
0.800781 0.945312 0.343750
0.835938 0.941406 0.359375
0.867188 0.941406 0.375000
0.898438 0.937500 0.390625
0.921875 0.937500 0.410156
0.941406 0.933594 0.429688
0.957031 0.933594 0.441406
0.968750 0.933594 0.457031
0.980469 0.937500 0.476562
0.984375 0.937500 0.511719
0.992188 0.937500 0.554688
0.992188 0.937500 0.605469
0.992188 0.937500 0.656250
0.992188 0.941406 0.707031
0.652344 0.964844 0.425781
0.652344 0.964844 0.425781
0.656250 0.964844 0.425781
0.656250 0.964844 0.425781
0.656250 0.964844 0.425781
0.656250 0.964844 0.425781
0.660156 0.964844 0.425781
0.664062 0.964844 0.425781
0.664062 0.964844 0.425781
0.671875 0.964844 0.425781
0.675781 0.964844 0.425781
0.683594 0.964844 0.425781
0.695312 0.964844 0.429688
0.707031 0.964844 0.429688
0.722656 0.960938 0.429688
0.742188 0.960938 0.433594
0.765625 0.960938 0.437500
0.789062 0.960938 0.441406
0.816406 0.957031 0.449219
0.843750 0.957031 0.460938
0.871094 0.953125 0.472656
0.894531 0.953125 0.484375
0.917969 0.949219 0.503906
0.933594 0.949219 0.519531
0.949219 0.949219 0.535156
0.960938 0.945312 0.550781
0.972656 0.945312 0.562500
0.976562 0.945312 0.582031
0.984375 0.945312 0.609375
0.984375 0.945312 0.644531
0.988281 0.949219 0.687500
0.988281 0.949219 0.726562
0.734375 0.972656 0.531250
0.734375 0.972656 0.531250
0.734375 0.972656 0.531250
0.734375 0.972656 0.531250
0.734375 0.972656 0.531250
0.734375 0.972656 0.535156
0.738281 0.972656 0.535156
0.738281 0.972656 0.535156
0.738281 0.972656 0.535156
0.742188 0.972656 0.535156
0.746094 0.972656 0.535156
0.750000 0.972656 0.535156
0.757812 0.968750 0.535156
0.765625 0.968750 0.535156
0.773438 0.968750 0.539062
0.785156 0.968750 0.539062
0.800781 0.968750 0.542969
0.816406 0.968750 0.546875
0.835938 0.964844 0.550781
0.855469 0.964844 0.558594
0.875000 0.964844 0.566406
0.894531 0.960938 0.578125
0.914062 0.960938 0.589844
0.929688 0.957031 0.605469
0.945312 0.957031 0.617188
0.957031 0.957031 0.632812
0.964844 0.953125 0.640625
0.972656 0.953125 0.652344
0.976562 0.953125 0.667969
0.980469 0.953125 0.691406
0.980469 0.953125 0.718750
0.980469 0.953125 0.750000
0.792969 0.972656 0.628906
0.792969 0.972656 0.628906
0.792969 0.972656 0.628906
0.792969 0.972656 0.628906
0.792969 0.972656 0.628906
0.792969 0.972656 0.628906
0.792969 0.972656 0.628906
0.792969 0.972656 0.628906
0.796875 0.972656 0.628906
0.796875 0.972656 0.628906
0.800781 0.972656 0.628906
0.800781 0.972656 0.628906
0.804688 0.972656 0.628906
0.808594 0.972656 0.632812
0.816406 0.972656 0.632812
0.824219 0.972656 0.632812
0.832031 0.972656 0.632812
0.843750 0.972656 0.636719
0.855469 0.968750 0.640625
0.871094 0.968750 0.644531
0.882812 0.968750 0.648438
0.898438 0.964844 0.656250
0.914062 0.964844 0.664062
0.929688 0.964844 0.675781
0.941406 0.960938 0.683594
0.949219 0.960938 0.695312
0.960938 0.960938 0.707031
0.964844 0.960938 0.714844
0.972656 0.960938 0.726562
0.976562 0.957031 0.738281
0.976562 0.957031 0.753906
0.976562 0.957031 0.777344
0.835938 0.972656 0.707031
0.835938 0.972656 0.707031
0.835938 0.972656 0.707031
0.835938 0.972656 0.707031
0.835938 0.972656 0.707031
0.835938 0.972656 0.707031
0.835938 0.972656 0.707031
0.835938 0.972656 0.707031
0.839844 0.972656 0.707031
0.839844 0.972656 0.707031
0.839844 0.972656 0.707031
0.839844 0.972656 0.707031
0.843750 0.972656 0.707031
0.847656 0.972656 0.707031
0.847656 0.972656 0.707031
0.855469 0.972656 0.707031
0.859375 0.972656 0.710938
0.867188 0.972656 0.710938
0.875000 0.972656 0.710938
0.882812 0.972656 0.714844
0.894531 0.968750 0.718750
0.906250 0.968750 0.722656
0.917969 0.968750 0.726562
0.929688 0.968750 0.734375
0.937500 0.964844 0.742188
0.945312 0.964844 0.750000
0.953125 0.964844 0.757812
0.960938 0.960938 0.769531
0.964844 0.960938 0.773438
0.968750 0.960938 0.781250
0.972656 0.960938 0.789062
0.972656 0.960938 0.804688
0.871094 0.972656 0.765625
0.871094 0.972656 0.765625
0.871094 0.972656 0.765625
0.871094 0.972656 0.765625
0.871094 0.972656 0.765625
0.871094 0.972656 0.765625
0.871094 0.972656 0.765625
0.871094 0.972656 0.765625
0.871094 0.972656 0.765625
0.871094 0.972656 0.765625
0.871094 0.972656 0.765625
0.871094 0.972656 0.765625
0.875000 0.972656 0.765625
0.875000 0.972656 0.765625
0.875000 0.972656 0.769531
0.878906 0.972656 0.769531
0.882812 0.972656 0.769531
0.886719 0.972656 0.769531
0.890625 0.972656 0.769531
0.898438 0.972656 0.773438
0.906250 0.972656 0.773438
0.914062 0.968750 0.777344
0.921875 0.968750 0.777344
0.929688 0.968750 0.781250
